X: 40101
T: Tich's
R: reel
M: 4/4
K: Gmajor
|:dc|BcdB c2 BA|GBgf e2 dc|BcdB GABG|FAAB A2 dc|
BcdB c2 BA|GBgf e2 dc|BcdB cAFG|A G2 F G2:|
|:g2|fgaf g2 fe|dcAc BGGg|fgaf gedB|cAAG A2 dc|
BcdB cdeg|fgaf ~e2 dc|BcdB cAFA|AGGF G2:|

